src/assets/truck-icon.svg

<svg width="36" height="24" viewBox="0 0 36 24" fill="none" xmlns="http://www.w3.org/2000/svg">
<path d="M27.8182 21.582C29.1764 21.582 30.2727 20.6189 30.2727 19.4258C30.2727 18.2327 29.1764 17.2695 27.8182 17.2695C26.46 17.2695 25.3636 18.2327 25.3636 19.4258C25.3636 20.6189 26.46 21.582 27.8182 21.582ZM30.2727 8.64453H26.1818V12.2383H33.48L30.2727 8.64453ZM8.18182 21.582C9.54 21.582 10.6364 20.6189 10.6364 19.4258C10.6364 18.2327 9.54 17.2695 8.18182 17.2695C6.82364 17.2695 5.72727 18.2327 5.72727 19.4258C5.72727 20.6189 6.82364 21.582 8.18182 21.582ZM31.0909 6.48828L36 12.2383V19.4258H32.7273C32.7273 21.812 30.5345 23.7383 27.8182 23.7383C25.1018 23.7383 22.9091 21.812 22.9091 19.4258H13.0909C13.0909 21.812 10.8982 23.7383 8.18182 23.7383C5.46545 23.7383 3.27273 21.812 3.27273 19.4258H0V3.61328C0 2.01766 1.45636 0.738281 3.27273 0.738281H26.1818V6.48828H31.0909ZM3.27273 3.61328V16.5508H4.51636C5.41636 15.6739 6.72545 15.1133 8.18182 15.1133C9.63818 15.1133 10.9473 15.6739 11.8473 16.5508H22.9091V3.61328H3.27273Z" fill="#240000"/>
</svg>

<svg xmlns="http://www.w3.org/2000/svg" width="36" height="24" fill="none">
  <path fill="#240000" d="M27.818 21.582c1.358 0 2.455-.963 2.455-2.156s-1.097-2.156-2.455-2.156-2.454.963-2.454 2.156 1.096 2.156 2.454 2.156Zm2.455-12.937h-4.091v3.593h7.298l-3.207-3.593ZM8.182 21.582c1.358 0 2.454-.963 2.454-2.156S9.54 17.27 8.182 17.27s-2.455.963-2.455 2.156 1.097 2.156 2.455 2.156ZM31.09 6.488 36 12.238v7.188h-3.273c0 2.386-2.192 4.312-4.909 4.312-2.716 0-4.909-1.926-4.909-4.312h-9.818c0 2.386-2.193 4.312-4.91 4.312-2.716 0-4.908-1.926-4.908-4.312H0V3.613C0 2.018 1.456.738 3.273.738h22.909v5.75h4.909ZM3.273 3.613v12.938h1.243c.9-.877 2.21-1.438 3.666-1.438s2.765.56 3.665 1.438H22.91V3.613H3.273Z"/>
</svg>
